icons/lines/emoji-normal.svg

<svg xmlns="http://www.w3.org/2000/svg" width="24" height="24" viewBox="0 0 24 24" fill="none" stroke="currentColor" stroke-width="2" stroke-linecap="round" stroke-linejoin="round">
  <path d="M13.36 8.25a2.583 2.583 0 0 0 3.64 0" />
  <path d="M15 22c5 0 7-2 7-7V9c0-5-2-7-7-7H9C4 2 2 4 2 9v6c0 5 2 7 7 7z" />
  <path d="M15.6 13a.896.896 0 0 1 .9.9 1 1 0 0 1-9 0 .896.896 0 0 1 .9-.9z" />
  <path d="M7 8.25a2.583 2.583 0 0 0 3.64 0" />
</svg>

<svg xmlns="http://www.w3.org/2000/svg" width="24" height="24" viewBox="0 0 24 24" fill="none" stroke="currentColor" stroke-width="2" stroke-linecap="round" stroke-linejoin="round" >
  <path d="M9 22H15C20 22 22 20 22 15V9C22 4 20 2 15 2H9C4 2 2 4 2 9V15C2 20 4 22 9 22Z"/>
  <path d="M7 8.25C8 9.25 9.63 9.25 10.64 8.25" stroke-miterlimit="10"/>
  <path d="M13.3604 8.25C14.3604 9.25 15.9904 9.25 17.0004 8.25" stroke-miterlimit="10"/>
  <path d="M8.4 13H15.6C16.1 13 16.5 13.4 16.5 13.9C16.5 16.39 14.49 18.4 12 18.4C9.51 18.4 7.5 16.39 7.5 13.9C7.5 13.4 7.9 13 8.4 13Z" stroke-miterlimit="10"/>
  </svg>
